icons/actions/22/document-open-recent.svg

<svg xmlns="http://www.w3.org/2000/svg" viewBox="0 0 22 22">
  <defs id="defs3051">
    <style type="text/css" id="current-color-scheme">
      .ColorScheme-Text {
        color:#4d4d4d;
      }
      </style>
  </defs>
 <path 
    style="fill:currentColor;fill-opacity:1;stroke:none" 
	d="m4 3v16h1 5v-1h-5v-14h12v7h1v-8h-1-12-1m10 8c-2.215995 0-4 1.784005-4 4 0 2.215995 1.784005 4 4 4 2.215995 0 4-1.784005 4-4 0-2.215995-1.784005-4-4-4m0 1c1.661995 0 3 1.338005 3 3 0 1.661995-1.338005 3-3 3-1.661995 0-3-1.338005-3-3 0-1.661995 1.338005-3 3-3m-1 1v2 1h1 1v-1h-1v-2h-1"
    class="ColorScheme-Text"
    />
</svg>

<?xml version="1.0"?>
<!-- Created with Inkscape (http://www.inkscape.org/) -->
<svg xmlns:dc="http://purl.org/dc/elements/1.1/" xmlns:cc="http://creativecommons.org/ns#" xmlns:rdf="http://www.w3.org/1999/02/22-rdf-syntax-ns#" xmlns:svg="http://www.w3.org/2000/svg" xmlns="http://www.w3.org/2000/svg" xmlns:sodipodi="http://sodipodi.sourceforge.net/DTD/sodipodi-0.dtd" xmlns:inkscape="http://www.inkscape.org/namespaces/inkscape" width="22" height="22" id="svg2" version="1.1" inkscape:version="0.48+devel r" viewBox="0 0 22 22" sodipodi:docname="document-open-recent.svg">
  <defs id="defs4">
    <style type="text/css" id="current-color-scheme">
      .ColorScheme-Text {
        color:#4d4d4d;
      }
      .ColorScheme-Background {
        color:#eff0f1;
      }
      .ColorScheme-Highlight {
        color:#3daee9;
      }
      .ColorScheme-ViewText {
        color:#31363b;
      }
      .ColorScheme-ViewBackground {
        color:#fcfcfc;
      }
      .ColorScheme-ViewHover {
        color:#93cee9;
      }
      .ColorScheme-ViewFocus{
        color:#3daee9;
      }
      .ColorScheme-ButtonText {
        color:#31363b;
      }
      .ColorScheme-ButtonBackground {
        color:#eff0f1;
      }
      .ColorScheme-ButtonHover {
        color:#93cee9;
      }
      .ColorScheme-ButtonFocus{
        color:#3daee9;
      }
      </style>
  </defs>
  <sodipodi:namedview id="base" pagecolor="#ffffff" bordercolor="#666666" borderopacity="1.0" inkscape:pageopacity="0.0" inkscape:pageshadow="2" inkscape:zoom="22.627417" inkscape:cx="11.122053" inkscape:cy="10.4607" inkscape:document-units="px" inkscape:current-layer="layer1" showgrid="true" inkscape:showpageshadow="false" borderlayer="true" inkscape:window-width="1366" inkscape:window-height="668" inkscape:window-x="-2" inkscape:window-y="23" inkscape:window-maximized="1" units="px">
    <sodipodi:guide position="2,20.000017" orientation="18,0" id="guide4085"/>
    <sodipodi:guide position="2,2.0000174" orientation="0,18" id="guide4087"/>
    <sodipodi:guide position="20,2.0000174" orientation="-18,0" id="guide4089"/>
    <sodipodi:guide position="20,20.000017" orientation="0,-18" id="guide4091"/>
    <sodipodi:guide position="3,19.000017" orientation="16,0" id="guide4093"/>
    <sodipodi:guide position="3,3.0000174" orientation="0,16" id="guide4095"/>
    <sodipodi:guide position="19,3.0000174" orientation="-16,0" id="guide4097"/>
    <sodipodi:guide position="19,19.000017" orientation="0,-16" id="guide4099"/>
    <inkscape:grid type="xygrid" id="grid4101"/>
    <sodipodi:guide position="3,19.000017" orientation="16,0" id="guide4123"/>
    <sodipodi:guide position="3,3.0000174" orientation="0,2.000001" id="guide4125"/>
    <sodipodi:guide position="4,19.000017" orientation="-16,0" id="guide4127"/>
    <sodipodi:guide position="5.000001,19.000017" orientation="0,-2.000001" id="guide4129"/>
    <sodipodi:guide position="18,19.000017" orientation="16,0" id="guide4131"/>
    <sodipodi:guide position="17,3.0000174" orientation="0,2" id="guide4133"/>
    <sodipodi:guide position="19,3.0000174" orientation="-16,0" id="guide4135"/>
    <sodipodi:guide position="19,19.000017" orientation="0,-2" id="guide4137"/>
  </sodipodi:namedview>
  <metadata id="metadata7">
    <rdf:RDF>
      <cc:Work rdf:about="">
        <dc:format>image/svg+xml</dc:format>
        <dc:type rdf:resource="http://purl.org/dc/dcmitype/StillImage"/>
        <dc:title/>
      </cc:Work>
    </rdf:RDF>
  </metadata>
  <g inkscape:label="Capa 1" inkscape:groupmode="layer" id="layer1" transform="translate(0,-1030.3622)">
    <path style="fill:currentColor;fill-opacity:1;stroke:none" d="M 4 3 L 4 19 L 5 19 L 10 19 L 10 18 L 5 18 L 5 4 L 17 4 L 17 11 L 18 11 L 18 3 L 17 3 L 5 3 L 4 3 z M 14 11 C 11.784005 11 10 12.784005 10 15 C 10 17.215995 11.784005 19 14 19 C 16.215995 19 18 17.215995 18 15 C 18 12.784005 16.215995 11 14 11 z M 14 12 C 15.661995 12 17 13.338005 17 15 C 17 16.661995 15.661995 18 14 18 C 12.338005 18 11 16.661995 11 15 C 11 13.338005 12.338005 12 14 12 z M 13 13 L 13 15 L 13 16 L 14 16 L 15 16 L 15 15 L 14 15 L 14 13 L 13 13 z " transform="translate(0,1030.3622)" id="rect4139" class="ColorScheme-Text"/>
  </g>
</svg>
